app/src/assets/icons/categories.svg

<svg width="14" height="14" viewBox="0 0 14 14" fill="none" xmlns="http://www.w3.org/2000/svg">
<path d="M0.339401 4.04759L6.70879 6.93697C6.89473 7.02146 7.105 7.02146 7.29094 6.93697L13.6603 4.04759C14.1129 3.84224 14.1129 3.15838 13.6603 2.95303L7.29121 0.0633676C7.19985 0.0216116 7.10058 0 7.00014 0C6.89969 0 6.80042 0.0216116 6.70907 0.0633676L0.339401 2.95275C-0.113134 3.1581 -0.113134 3.84224 0.339401 4.04759ZM13.6606 6.46147L12.0722 5.74152L7.65242 7.74497C7.4457 7.83876 7.22613 7.88634 7 7.88634C6.77387 7.88634 6.55458 7.83876 6.34759 7.74497L1.92806 5.74152L0.339401 6.46147C-0.113134 6.66655 -0.113134 7.35013 0.339401 7.55521L6.70879 10.4424C6.89473 10.5266 7.105 10.5266 7.29094 10.4424L13.6606 7.55521C14.1131 7.35013 14.1131 6.66655 13.6606 6.46147ZM13.6606 9.95597L12.0782 9.23875L7.65242 11.2449C7.4457 11.3387 7.22613 11.3863 7 11.3863C6.77387 11.3863 6.55458 11.3387 6.34759 11.2449L1.92204 9.23875L0.339401 9.95597C-0.113134 10.161 -0.113134 10.8446 0.339401 11.0497L6.70879 13.9369C6.89473 14.0211 7.105 14.0211 7.29094 13.9369L13.6606 11.0497C14.1131 10.8446 14.1131 10.161 13.6606 9.95597Z" fill="#11ABEC"/>
</svg>

<svg viewBox="0 0 14 14" fill="none" width="32" height="32" xmlns="http://www.w3.org/2000/svg" xmlns:xlink="http://www.w3.org/1999/xlink">
    <style>
        :root, .palette0 {color: currentColor;
            --color0: #001a25;
            --color1: #636970;
        }
    </style>
    <path fill="var(--color1, #636970)" d="M0.3394 4.0476 6.7088 6.937c0.1859 0.0845 0.3962 0.0845 0.5821 0l6.3694-2.8894c0.4526-0.2054 0.4526-0.8892 0-1.0946L7.2912 0.0634C7.1999 0.0216 7.1006 0 7.0001 0 6.8997 0 6.8004 0.0216 6.7091 0.0634L0.3394 2.9528c-0.4525 0.2053-0.4525 0.8894 0 1.0948zM13.6606 6.4615l-1.5884-0.72L7.6524 7.745C7.4457 7.8388 7.2261 7.8863 7 7.8863c-0.2261 0-0.4454-0.0475-0.6524-0.1413L1.9281 5.7415l-1.5887 0.72c-0.4525 0.205-0.4525 0.8886 0 1.0937l6.3694 2.8872c0.1859 0.0842 0.3962 0.0842 0.5821 0l6.3697-2.8872c0.4525-0.2051 0.4525-0.8886 0-1.0937zM13.6606 9.956 12.0782 9.2388 7.6524 11.2449C7.4457 11.3387 7.2261 11.3863 7 11.3863s-0.4454-0.0476-0.6524-0.1414L1.922 9.2388 0.3394 9.956c-0.4525 0.205-0.4525 0.8886 0 1.0937l6.3694 2.8872c0.1859 0.0842 0.3962 0.0842 0.5821 0l6.3697-2.8872c0.4525-0.2051 0.4525-0.8887 0-1.0937z" />
</svg>
